openmetadata-ui/src/main/resources/ui/src/assets/svg/kpi.svg

<svg width="14" height="14" viewBox="0 0 14 14" fill="none" xmlns="http://www.w3.org/2000/svg">
<g clip-path="url(#clip0_16711_21307)">
<path d="M6.5381 7.46185L5.33034 6.25409C5.07495 5.9987 5.07495 5.58463 5.33034 5.32923C5.58575 5.07384 5.9998 5.07384 6.25519 5.32923L7.00054 6.07456L9.68043 3.39467C9.93585 3.13928 10.3499 3.13928 10.6053 3.39467C10.8607 3.65006 10.8607 4.06413 10.6053 4.31952L7.46298 7.46185C7.20756 7.71724 6.79352 7.71724 6.5381 7.46185Z" stroke="currentColor" stroke-width="0.6" stroke-miterlimit="10" stroke-linecap="round" stroke-linejoin="round"/>
<path d="M9.5 3.5C8.79653 2.98509 7.93915 2.74609 7.00057 2.74609C4.65146 2.74609 2.74713 4.65042 2.74713 6.99953C2.74713 9.34864 4.65146 11.253 7.00057 11.253C9.34967 11.253 11.254 9.34864 11.254 6.99953C11.254 6.06094 11.0149 5.20347 10.5 4.5" stroke="currentColor" stroke-width="0.7" stroke-miterlimit="10" stroke-linecap="round" stroke-linejoin="round"/>
<path d="M9.14834 0.863192C8.47597 0.627918 7.7532 0.5 7.00052 0.5C3.41038 0.5 0.5 3.41038 0.5 7.00052C0.5 9.11321 1.50786 10.9905 3.06898 12.1778" stroke="currentColor" stroke-width="0.7" stroke-miterlimit="10" stroke-linecap="round" stroke-linejoin="round"/>
<path d="M3.84039 12.6796C4.77587 13.201 5.85349 13.498 7.00048 13.498C10.5906 13.498 13.501 10.5876 13.501 6.99749C13.501 4.49051 12.0819 2.315 10.0031 1.23047" stroke="currentColor" stroke-width="0.7" stroke-miterlimit="10" stroke-linecap="round" stroke-linejoin="round"/>
<path d="M11.2539 7H13.501" stroke="currentColor" stroke-width="0.7" stroke-miterlimit="10" stroke-linecap="round" stroke-linejoin="round"/>
<path d="M11.8455 2.645C11.9817 2.5078 11.9808 2.2862 11.8436 2.15003C11.7064 2.01385 11.4848 2.01468 11.3487 2.15188L11.8455 2.645ZM10.7516 2.75344L10.505 3.00185L11.0019 3.49497L11.2484 3.24656L10.7516 2.75344ZM11.3487 2.15188L10.7516 2.75344L11.2484 3.24656L11.8455 2.645L11.3487 2.15188Z" fill="currentColor"/>
<path d="M7.00055 0.5V2.74709" stroke="currentColor" stroke-width="0.7" stroke-miterlimit="10" stroke-linecap="round" stroke-linejoin="round"/>
<path d="M3.99286 3.98736L2.40393 2.39844" stroke="currentColor" stroke-width="0.7" stroke-miterlimit="10" stroke-linecap="round" stroke-linejoin="round"/>
<path d="M0.5 7H2.74709" stroke="currentColor" stroke-width="0.7" stroke-miterlimit="10" stroke-linecap="round" stroke-linejoin="round"/>
<path d="M5.32397 8.48438V9.99148" stroke="currentColor" stroke-width="0.5" stroke-miterlimit="10" stroke-linecap="round" stroke-linejoin="round"/>
<path d="M6.13468 8.5L5.37219 9.20085L6.18817 9.98808" stroke="currentColor" stroke-width="0.5" stroke-miterlimit="10" stroke-linecap="round" stroke-linejoin="round"/>
<path d="M8.677 8.48438V9.99148" stroke="currentColor" stroke-width="0.5" stroke-miterlimit="10" stroke-linecap="round" stroke-linejoin="round"/>
<path d="M6.99847 8.48438V9.99148" stroke="currentColor" stroke-width="0.5" stroke-miterlimit="10" stroke-linecap="round" stroke-linejoin="round"/>
<path d="M6.99847 8.48438C6.99847 8.48438 7.28047 8.48438 7.41812 8.48438C7.653 8.48438 7.85176 8.67479 7.85176 8.90967C7.85176 9.14455 7.653 9.33499 7.41812 9.33499C7.30163 9.33499 7.0014 9.33687 7.0014 9.33687" stroke="currentColor" stroke-width="0.5" stroke-miterlimit="10" stroke-linecap="round" stroke-linejoin="round"/>
</g>
<defs>
<clipPath id="clip0_16711_21307">
<rect width="14" height="14" fill="white"/>
</clipPath>
</defs>
</svg>

<svg xmlns="http://www.w3.org/2000/svg" width="14" height="14" fill="none"><g clip-path="url(#a)"><path stroke="currentColor" stroke-linecap="round" stroke-linejoin="round" stroke-miterlimit="10" stroke-width=".6" d="M6.538 7.462 5.33 6.254a.654.654 0 0 1 .925-.925l.746.746 2.68-2.68a.654.654 0 0 1 .924.925L7.463 7.462a.654.654 0 0 1-.925 0Z"/><path stroke="currentColor" stroke-linecap="round" stroke-linejoin="round" stroke-miterlimit="10" stroke-width=".7" d="M9.5 3.5c-.703-.515-1.56-.754-2.5-.754A4.253 4.253 0 1 0 11.255 7c0-.94-.24-1.797-.754-2.5"/><path stroke="currentColor" stroke-linecap="round" stroke-linejoin="round" stroke-miterlimit="10" stroke-width=".7" d="M9.148.863a6.5 6.5 0 0 0-6.08 11.315M3.84 12.68a6.5 6.5 0 1 0 6.163-11.45M11.254 7H13.5"/><path fill="currentColor" d="M11.845 2.645a.35.35 0 0 0-.496-.493l.496.493Zm-1.093.108-.247.249.497.493.246-.248-.496-.494Zm.597-.601-.597.601.496.494.598-.602-.497-.493Z"/><path stroke="currentColor" stroke-linecap="round" stroke-linejoin="round" stroke-miterlimit="10" stroke-width=".7" d="M7 .5v2.247M3.993 3.987l-1.59-1.589M.5 7h2.247"/><path stroke="currentColor" stroke-linecap="round" stroke-linejoin="round" stroke-miterlimit="10" stroke-width=".5" d="M5.324 8.484v1.507M6.135 8.5l-.763.7.816.788M8.677 8.484v1.507M6.998 8.484v1.507M6.998 8.484h.42c.235 0 .434.19.434.426a.433.433 0 0 1-.434.425l-.417.002"/></g><defs><clipPath id="a"><path fill="#fff" d="M0 0h14v14H0z"/></clipPath></defs></svg>
